X:696
T:Mrs. Forbes
R:Reel
B:The Athole Collection
M:C|
L:1/8
K:A
c|:A/A/A A>F E2 E>F|A/A/A A>c dBBc|A/A/A A>F E2 (EF|
A2 (B>d c>AA>c:|
||(efec (ef a2|e>fd>c fBBc|e>fe>c (e>fa>f|ecdB cAAc|(e>fe>c (e>f a2|
e>fec fBBc|(e>fed c>ea>f|ecdB cAA|]

